public/Olx.svg

<?xml version="1.0" encoding="utf-8"?>
<!-- Generator: Adobe Illustrator 19.0.0, SVG Export Plug-In . SVG Version: 6.00 Build 0)  -->
<svg version="1.1" id="layer" xmlns="http://www.w3.org/2000/svg" xmlns:xlink="http://www.w3.org/1999/xlink" x="0px" y="0px"
	 viewBox="-153 -46 652 652" style="enable-background:new -153 -46 652 652;" xml:space="preserve">
<path d="M273,107.6v342.9h-85.7V107.6H273z M15.9,136.1c78.9,0,142.9,64,142.9,142.9s-64,142.9-142.9,142.9S-127,357.9-127,279
	S-63,136.1,15.9,136.1z M362.2,193.3l25.1,25.1l25.1-25.1H473v60.6L447.9,279l25.1,25.1v60.6h-60.6l-25.1-25.1l-25.1,25.1h-60.6
	v-60.6l25.1-25.1l-25.1-25.1v-60.6H362.2z M15.9,221.9c-31.5,0-57.1,25.6-57.1,57.1s25.6,57.1,57.1,57.1S73,310.5,73,279
	S47.4,221.9,15.9,221.9z"/>
</svg>

<?xml version="1.0" encoding="UTF-8" standalone="no"?>
<!DOCTYPE svg PUBLIC "-//W3C//DTD SVG 1.1//EN" "http://www.w3.org/Graphics/SVG/1.1/DTD/svg11.dtd">
<svg width="100%" height="100%" viewBox="0 0 652 652" version="1.1" xmlns="http://www.w3.org/2000/svg" xmlns:xlink="http://www.w3.org/1999/xlink" xml:space="preserve" xmlns:serif="http://www.serif.com/" style="fill-rule:evenodd;clip-rule:evenodd;stroke-linejoin:round;stroke-miterlimit:2;">
    <g transform="matrix(1.08758,0,0,1.12752,138.649,22.9287)">
        <path d="M273,107.6L273,450.5L187.3,450.5L187.3,107.6L273,107.6ZM15.9,136.1C94.8,136.1 158.8,200.1 158.8,279C158.8,357.9 94.8,421.9 15.9,421.9C-63,421.9 -127,357.9 -127,279C-127,200.1 -63,136.1 15.9,136.1ZM362.2,193.3L387.3,218.4L412.4,193.3L473,193.3L473,253.9L447.9,279L473,304.1L473,364.7L412.4,364.7L387.3,339.6L362.2,364.7L301.6,364.7L301.6,304.1L326.7,279L301.6,253.9L301.6,193.3L362.2,193.3ZM15.9,221.9C-15.6,221.9 -41.2,247.5 -41.2,279C-41.2,310.5 -15.6,336.1 15.9,336.1C47.4,336.1 73,310.5 73,279C73,247.5 47.4,221.9 15.9,221.9Z" style="fill-rule:nonzero;"/>
    </g>
</svg>
